public/assets/discord.svg

<?xml version="1.0" encoding="utf-8"?><!-- Uploaded to: SVG Repo, www.svgrepo.com, Generator: SVG Repo Mixer Tools -->
<svg width="35px" height="35px" viewBox="0 0 24 24" fill="none" xmlns="http://www.w3.org/2000/svg">
<path d="M18.59 5.88997C17.36 5.31997 16.05 4.89997 14.67 4.65997C14.5 4.95997 14.3 5.36997 14.17 5.69997C12.71 5.47997 11.26 5.47997 9.83001 5.69997C9.69001 5.36997 9.49001 4.95997 9.32001 4.65997C7.94001 4.89997 6.63001 5.31997 5.40001 5.88997C2.92001 9.62997 2.25001 13.28 2.58001 16.87C4.23001 18.1 5.82001 18.84 7.39001 19.33C7.78001 18.8 8.12001 18.23 8.42001 17.64C7.85001 17.43 7.31001 17.16 6.80001 16.85C6.94001 16.75 7.07001 16.64 7.20001 16.54C10.33 18 13.72 18 16.81 16.54C16.94 16.65 17.07 16.75 17.21 16.85C16.7 17.16 16.15 17.42 15.59 17.64C15.89 18.23 16.23 18.8 16.62 19.33C18.19 18.84 19.79 18.1 21.43 16.87C21.82 12.7 20.76 9.08997 18.61 5.88997H18.59ZM8.84001 14.67C7.90001 14.67 7.13001 13.8 7.13001 12.73C7.13001 11.66 7.88001 10.79 8.84001 10.79C9.80001 10.79 10.56 11.66 10.55 12.73C10.55 13.79 9.80001 14.67 8.84001 14.67ZM15.15 14.67C14.21 14.67 13.44 13.8 13.44 12.73C13.44 11.66 14.19 10.79 15.15 10.79C16.11 10.79 16.87 11.66 16.86 12.73C16.86 13.79 16.11 14.67 15.15 14.67Z" fill="#fff"/>
</svg>

<svg xmlns="http://www.w3.org/2000/svg" width="35" height="35" fill="none" viewBox="0 0 24 24"><path fill="#fff" d="M18.59 5.89c-1.23-.57-2.54-.99-3.92-1.23-.17.3-.37.71-.5 1.04-1.46-.22-2.91-.22-4.34 0-.14-.33-.34-.74-.51-1.04-1.38.24-2.69.66-3.92 1.23-2.48 3.74-3.15 7.39-2.82 10.98 1.65 1.23 3.24 1.97 4.81 2.46.39-.53.73-1.1 1.03-1.69-.57-.21-1.11-.48-1.62-.79.14-.1.27-.21.4-.31 3.13 1.46 6.52 1.46 9.61 0 .13.11.26.21.4.31-.51.31-1.06.57-1.62.79.3.59.64 1.16 1.03 1.69 1.57-.49 3.17-1.23 4.81-2.46.39-4.17-.67-7.78-2.82-10.98zm-9.75 8.78c-.94 0-1.71-.87-1.71-1.94s.75-1.94 1.71-1.94 1.72.87 1.71 1.94c0 1.06-.75 1.94-1.71 1.94m6.31 0c-.94 0-1.71-.87-1.71-1.94s.75-1.94 1.71-1.94 1.72.87 1.71 1.94c0 1.06-.75 1.94-1.71 1.94"/></svg>
